src/pages/screens/Techs/images/backend/Postgresql.svg

<svg width="31" height="32" viewBox="0 0 31 32" fill="none" xmlns="http://www.w3.org/2000/svg">
<path d="M30.8799 19.1619C30.694 18.5984 30.2071 18.2059 29.5774 18.1118C29.2805 18.0674 28.9405 18.0863 28.5381 18.1693C27.8367 18.3142 27.3163 18.3693 26.9366 18.38C28.37 15.9576 29.5355 13.1952 30.2065 10.5948C31.2915 6.39007 30.7117 4.47456 30.0342 3.60813C28.2411 1.3148 25.6251 0.0827991 22.4692 0.0451021C20.7856 0.0244961 19.3077 0.357223 18.5367 0.596496C17.8188 0.469708 17.047 0.39892 16.2371 0.385829C14.719 0.361587 13.3776 0.69286 12.2315 1.37371C11.5969 1.15892 10.5785 0.856132 9.40246 0.66292C6.63644 0.208375 4.4071 0.562557 2.77645 1.71565C0.801898 3.11177 -0.113449 5.53747 0.0558397 8.92534C0.109605 10.001 0.710715 13.2737 1.65718 16.3775C2.20114 18.1615 2.78118 19.6429 3.3812 20.7811C4.23212 22.395 5.14262 23.3455 6.16478 23.6868C6.73767 23.8778 7.77859 24.0116 8.8734 23.0989C9.01218 23.2672 9.19733 23.4343 9.44303 23.5896C9.75509 23.7866 10.1367 23.9475 10.5177 24.0429C11.8911 24.3866 13.1774 24.3006 14.2749 23.8189C14.2817 24.0143 14.2869 24.201 14.2913 24.3622C14.2985 24.6236 14.3058 24.88 14.3154 25.1198C14.3804 26.7409 14.4906 28.0013 14.817 28.8833C14.835 28.9318 14.8591 29.0057 14.8845 29.0841C15.0474 29.5833 15.3197 30.4189 16.0126 31.0733C16.7301 31.7513 17.598 31.9592 18.3928 31.9592C18.7915 31.9592 19.1718 31.9068 19.5054 31.8353C20.6946 31.5801 22.0451 31.1915 23.0221 29.799C23.9458 28.4827 24.3948 26.5 24.4761 23.376C24.4866 23.2876 24.4963 23.2033 24.5056 23.1229L24.525 22.9578L24.7426 22.977L24.7987 22.9807C26.0099 23.036 27.4908 22.7789 28.4004 22.356C29.1191 22.0222 31.4221 20.8051 30.8799 19.1619Z" fill="black"/>
<path d="M28.8089 19.4814C25.2076 20.225 24.96 19.0046 24.96 19.0046C28.7623 13.3569 30.3519 6.18808 28.9803 4.43353C25.238 -0.352528 18.7601 1.91099 18.6519 1.96965L18.6172 1.97596C17.9056 1.82808 17.1095 1.74008 16.2145 1.72541C14.585 1.69874 13.3489 2.15305 12.4109 2.86505C12.4109 2.86505 0.85492 -1.90029 1.39246 8.85826C1.50677 11.147 4.66974 26.1762 8.44229 21.6367C9.82119 19.9767 11.1536 18.5732 11.1536 18.5732C11.8152 19.0132 12.6074 19.2377 13.4379 19.157L13.5024 19.1023C13.4823 19.3083 13.4915 19.5099 13.5282 19.7486C12.5563 20.8355 12.842 21.0263 10.8992 21.4266C8.93321 21.8322 10.0881 22.5541 10.8421 22.743C11.7563 22.9717 13.871 23.2958 15.3 21.2935L15.243 21.522C15.6238 21.8274 15.8911 23.5078 15.8463 25.0314C15.8015 26.5547 15.7716 27.6007 16.0716 28.4177C16.3718 29.2346 16.6707 31.0728 19.2248 30.525C21.3589 30.0672 22.4648 28.8809 22.6187 26.902C22.7278 25.4952 22.975 25.7032 22.9905 24.4454L23.1887 23.85C23.4172 21.943 23.2251 21.3277 24.5398 21.6139L24.8595 21.642C25.827 21.686 27.0936 21.4861 27.837 21.1403C29.4376 20.3968 30.387 19.1552 28.8087 19.4814H28.8089Z" fill="#336791"/>
<path d="M13.0873 9.88192C12.7628 9.83671 12.4689 9.87853 12.3202 9.99126C12.2366 10.0546 12.2107 10.1281 12.2037 10.1786C12.1851 10.3126 12.2788 10.4607 12.3364 10.5371C12.4994 10.7533 12.7375 10.9019 12.9731 10.9346C13.0073 10.9395 13.0413 10.9417 13.0751 10.9417C13.468 10.9417 13.8254 10.6354 13.8569 10.4093C13.8962 10.1262 13.4856 9.93744 13.0873 9.88204" fill="white"/>
<path d="M23.8385 9.8909C23.8075 9.66896 23.413 9.60569 23.0386 9.65781C22.6646 9.70993 22.3021 9.8789 22.3323 10.1013C22.3566 10.2743 22.6686 10.5696 23.038 10.5696C23.0692 10.5696 23.1007 10.5675 23.1324 10.563C23.379 10.5288 23.5599 10.3721 23.6458 10.2818C23.7766 10.1441 23.8524 9.99066 23.8385 9.8909Z" fill="white"/>
<path d="M30.0073 19.397C29.87 18.9814 29.428 18.8477 28.6937 18.9995C26.5134 19.4499 25.7326 19.1379 25.4762 18.9489C27.1709 16.3647 28.5651 13.2408 29.3172 10.3263C29.6735 8.94566 29.8703 7.66348 29.8864 6.61838C29.9042 5.47135 29.709 4.62845 29.3064 4.11354C27.6835 2.03778 25.3016 0.924324 22.4184 0.893779C20.4362 0.871476 18.7615 1.37923 18.4368 1.52202C17.7531 1.35184 17.0078 1.24735 16.1963 1.23402C14.7083 1.2099 13.4221 1.56651 12.3572 2.29342C11.8946 2.12105 10.6992 1.71026 9.23721 1.47451C6.70974 1.06723 4.70128 1.37584 3.26801 2.3922C1.5578 3.60505 0.768272 5.77305 0.921214 8.83584C0.972679 9.86626 1.55926 13.0362 2.4849 16.072C3.70334 20.0676 5.02787 22.3295 6.42141 22.7949C6.58453 22.8493 6.77258 22.8874 6.98002 22.8874C7.48837 22.8874 8.11164 22.658 8.7601 21.8777C9.55103 20.9279 10.3692 20.0012 11.2136 19.0987C11.7614 19.393 12.3632 19.5574 12.9788 19.5739C12.98 19.59 12.9815 19.6061 12.983 19.6221C12.877 19.7486 12.7733 19.8769 12.6718 20.007C12.2453 20.5489 12.1565 20.6618 10.7837 20.9447C10.3932 21.0254 9.356 21.2394 9.34074 21.9671C9.32427 22.7623 10.5668 23.0962 10.7084 23.1316C11.2017 23.2552 11.677 23.3162 12.1303 23.3162C13.2326 23.3162 14.2027 22.9535 14.9779 22.2518C14.954 25.0865 15.0721 27.8797 15.4121 28.7307C15.6907 29.4275 16.371 31.1301 18.5199 31.13C18.8352 31.13 19.1823 31.0933 19.5641 31.0114C21.8069 30.5301 22.7808 29.5379 23.1575 27.3504C23.3592 26.1813 23.7051 23.3897 23.8679 21.8922C24.2113 21.9995 24.6534 22.0486 25.1314 22.0484C26.1282 22.0484 27.2785 21.8364 27.9998 21.5013C28.8102 21.1246 30.2725 20.2002 30.0073 19.397ZM24.6664 9.27826C24.659 9.72032 24.5982 10.1217 24.5338 10.5406C24.4644 10.9911 24.3927 11.4569 24.3747 12.0224C24.3569 12.5727 24.4255 13.1448 24.4919 13.6981C24.626 14.8157 24.7637 15.9663 24.2308 17.1015C24.1423 16.9445 24.0634 16.7822 23.9947 16.6156C23.9284 16.4549 23.7846 16.1967 23.5854 15.8394C22.8105 14.4483 20.9959 11.1909 21.9248 9.86166C22.2015 9.46602 22.9037 9.05923 24.6664 9.27826ZM22.5298 1.78893C25.1132 1.84602 27.1568 2.81342 28.6036 4.66408C29.7133 6.0836 28.4914 12.5426 24.9538 18.1149C24.9183 18.0696 24.8825 18.0245 24.8466 17.9795L24.8018 17.9235C25.7159 16.4123 25.5372 14.9172 25.378 13.5916C25.3126 13.0476 25.2509 12.5338 25.2666 12.0511C25.2829 11.5396 25.3504 11.1008 25.4158 10.6766C25.4961 10.1538 25.5778 9.61281 25.5553 8.97511C25.5721 8.9082 25.5789 8.82917 25.5701 8.73535C25.5126 8.12384 24.8151 6.29366 23.3934 4.63717C22.6158 3.73111 21.4817 2.71717 19.9333 2.03329C20.5993 1.89511 21.5101 1.76626 22.5298 1.78893ZM8.07386 21.3065C7.35941 22.1664 6.86607 22.0015 6.7038 21.9475C5.64666 21.5945 4.41998 19.3579 3.33849 15.8112C2.40267 12.7424 1.85582 9.65644 1.81246 8.79111C1.67587 6.05438 2.33862 4.14711 3.78242 3.12214C6.13212 1.45426 9.99525 2.45257 11.5476 2.95887C11.5253 2.98093 11.502 3.00154 11.48 3.02396C8.93266 5.59899 8.99308 9.99851 8.99938 10.2675C8.99914 10.3712 9.00786 10.5181 9.01972 10.7202C9.06356 11.4602 9.14517 12.8374 8.92721 14.3971C8.72474 15.8464 9.17109 17.2649 10.1516 18.2891C10.2522 18.394 10.358 18.4938 10.4685 18.5882C10.0321 19.0561 9.08354 20.0907 8.07386 21.3065ZM10.7959 17.671C10.0057 16.8455 9.64674 15.6974 9.81107 14.5207C10.0411 12.8732 9.95626 11.4383 9.91061 10.6674C9.90419 10.5595 9.8985 10.4649 9.89523 10.3904C10.2674 10.0601 11.9918 9.13523 13.2217 9.41729C13.7828 9.5459 14.1248 9.92844 14.267 10.5864C15.0027 13.9928 14.3643 15.4126 13.8514 16.5535C13.7456 16.7886 13.6457 17.0107 13.5605 17.2406L13.4944 17.4183C13.327 17.8675 13.1713 18.2852 13.0748 18.6818C12.2346 18.6794 11.4174 18.3201 10.7959 17.6709V17.671ZM10.9249 22.2649C10.6796 22.2036 10.4589 22.097 10.3295 22.0087C10.4376 21.9578 10.63 21.8884 10.9638 21.8196C12.5788 21.4869 12.8282 21.252 13.3729 20.5597C13.4978 20.4009 13.6393 20.2211 13.8354 20.0019L13.8356 20.0017C14.1276 19.6744 14.2611 19.7299 14.5033 19.8305C14.6996 19.9117 14.8908 20.158 14.9683 20.4291C15.005 20.5571 15.0462 20.8 14.9114 20.989C13.7736 22.5837 12.1156 22.5632 10.9249 22.2649ZM19.3771 30.1379C17.4013 30.5617 16.7018 29.5526 16.2408 28.399C15.9433 27.6543 15.797 24.296 15.9008 20.5872C15.9021 20.5379 15.8951 20.4903 15.8815 20.4454C15.8694 20.3569 15.8509 20.2693 15.8263 20.1834C15.672 19.6437 15.296 19.1923 14.8449 19.0052C14.6657 18.9309 14.3368 18.7945 13.9416 18.8957C14.0259 18.5481 14.172 18.1555 14.3305 17.7304L14.397 17.5516C14.4718 17.35 14.5658 17.1412 14.6651 16.9201C15.2019 15.7264 15.9371 14.0914 15.1392 10.3977C14.8403 9.01414 13.8423 8.33851 12.3293 8.49548C11.4223 8.58941 10.5925 8.95572 10.1786 9.16578C10.0896 9.21087 10.0082 9.25451 9.93216 9.29693C10.0477 7.90299 10.4841 5.2979 12.1167 3.64966C13.1447 2.61208 14.5136 2.0996 16.1816 2.12723C19.4681 2.18105 21.5756 3.86929 22.765 5.2762C23.7899 6.48845 24.3449 7.70966 24.5663 8.36832C22.9007 8.19875 21.7679 8.52784 21.1936 9.34966C19.9443 11.1373 21.8771 14.6069 22.806 16.2744C22.9764 16.58 23.1234 16.8441 23.1696 16.9563C23.4721 17.6901 23.8638 18.1801 24.1497 18.5377C24.2373 18.6472 24.3223 18.7535 24.387 18.8464C23.8825 18.992 22.9764 19.3283 23.059 21.0097C22.9924 21.8533 22.5188 25.8031 22.2782 27.1986C21.9605 29.0423 21.2828 29.7289 19.3771 30.138V30.1379ZM27.6241 20.6911C27.1082 20.9307 26.2449 21.1105 25.4249 21.1492C24.5191 21.1916 24.058 21.0476 23.9495 20.959C23.8986 19.9112 24.2882 19.8018 24.7005 19.6859C24.7653 19.6677 24.8285 19.6499 24.8895 19.6286C24.9274 19.6595 24.969 19.6901 25.0145 19.7202C25.7425 20.2012 27.041 20.2531 28.8743 19.8743L28.8944 19.8703C28.6471 20.1017 28.224 20.4122 27.6241 20.6911Z" fill="white"/>
</svg>

<svg width="31" height="32" fill="none" xmlns="http://www.w3.org/2000/svg"><path d="M30.88 19.162c-.186-.564-.673-.956-1.303-1.05-.297-.045-.637-.026-1.039.057-.701.145-1.222.2-1.601.211 1.433-2.422 2.598-5.185 3.27-7.785 1.084-4.205.505-6.12-.173-6.987C28.241 1.315 25.625.083 22.47.045a13.394 13.394 0 0 0-3.932.551 14.628 14.628 0 0 0-2.3-.21c-1.518-.024-2.86.307-4.005.988a18.252 18.252 0 0 0-2.83-.711C6.636.208 4.407.563 2.776 1.716.802 3.112-.114 5.537.056 8.926.11 10 .71 13.273 1.657 16.377c.544 1.784 1.124 3.265 1.724 4.403.851 1.614 1.762 2.565 2.784 2.906.573.19 1.614.325 2.708-.588.14.168.324.335.57.49.312.198.694.359 1.075.454 1.373.344 2.66.258 3.757-.224.007.195.012.382.016.543.008.262.015.518.024.758.065 1.62.176 2.881.502 3.763.018.049.042.123.067.201.163.5.436 1.335 1.129 1.99.717.677 1.585.885 2.38.885.398 0 .779-.052 1.112-.124 1.19-.255 2.54-.643 3.517-2.036.924-1.316 1.373-3.299 1.454-6.423l.03-.253.019-.165.218.019.056.004c1.21.055 2.692-.202 3.601-.625.72-.334 3.022-1.55 2.48-3.194z" fill="#000"/><path d="M28.809 19.481c-3.601.744-3.849-.476-3.849-.476 3.802-5.648 5.392-12.817 4.02-14.571C25.238-.353 18.76 1.91 18.652 1.97l-.035.006a12.832 12.832 0 0 0-2.402-.25c-1.63-.027-2.866.427-3.804 1.14 0-.001-11.556-4.766-11.019 5.992.115 2.289 3.278 17.318 7.05 12.779 1.38-1.66 2.712-3.064 2.712-3.064.661.44 1.453.665 2.284.584l.064-.055c-.02.206-.01.408.026.647-.972 1.087-.686 1.277-2.629 1.678-1.966.405-.81 1.127-.057 1.316.914.229 3.029.553 4.458-1.45l-.057.229c.38.305.648 1.986.603 3.51-.044 1.523-.074 2.569.226 3.386.3.817.599 2.655 3.153 2.107 2.134-.458 3.24-1.644 3.394-3.623.109-1.407.356-1.199.372-2.457l.198-.595c.228-1.907.036-2.522 1.35-2.236l.32.028c.968.044 2.235-.156 2.978-.502 1.6-.743 2.55-1.985.972-1.659z" fill="#336791"/><path d="M13.087 9.882c-.324-.045-.618-.003-.767.11a.282.282 0 0 0-.116.187c-.019.134.075.282.132.358.163.216.402.365.637.398a.718.718 0 0 0 .102.007c.393 0 .75-.307.782-.533.04-.283-.371-.472-.77-.527M23.838 9.89c-.03-.221-.425-.284-.8-.232-.373.052-.736.22-.706.443.025.173.337.469.706.469a.671.671 0 0 0 .094-.007.909.909 0 0 0 .514-.281c.13-.138.206-.291.192-.391z" fill="#fff"/><path d="M30.007 19.397c-.137-.416-.579-.55-1.313-.397-2.18.45-2.961.138-3.218-.051 1.695-2.584 3.09-5.708 3.841-8.623.357-1.38.553-2.663.57-3.708.017-1.147-.178-1.99-.58-2.504-1.623-2.076-4.005-3.19-6.889-3.22-1.982-.023-3.656.485-3.981.628a9.917 9.917 0 0 0-2.24-.288c-1.489-.024-2.775.333-3.84 1.06a17.124 17.124 0 0 0-3.12-.82c-2.527-.407-4.536-.098-5.969.918C1.558 3.605.768 5.773.921 8.836c.052 1.03.638 4.2 1.564 7.236 1.218 3.996 2.543 6.258 3.936 6.723.164.054.352.092.559.092.508 0 1.132-.229 1.78-1.01.791-.95 1.61-1.876 2.454-2.778a3.95 3.95 0 0 0 1.765.475l.004.048c-.106.127-.21.255-.311.385-.427.542-.516.655-1.888.938-.39.08-1.428.294-1.443 1.022-.017.795 1.226 1.13 1.367 1.165.494.123.969.184 1.422.184 1.103 0 2.073-.363 2.848-1.064-.024 2.835.094 5.628.434 6.479.279.696.959 2.4 3.108 2.399.315 0 .662-.037 1.044-.119 2.243-.48 3.217-1.473 3.593-3.66.202-1.17.548-3.961.71-5.459.344.108.786.157 1.264.156.997 0 2.148-.212 2.869-.547.81-.376 2.273-1.3 2.007-2.104zm-5.34-10.119c-.008.442-.069.844-.133 1.263-.07.45-.141.916-.16 1.481-.017.55.052 1.123.118 1.676.134 1.118.272 2.268-.261 3.404a4.425 4.425 0 0 1-.236-.486c-.067-.161-.21-.42-.41-.777-.774-1.39-2.59-4.648-1.66-5.977.276-.396.979-.803 2.741-.584zm-2.137-7.49c2.583.058 4.627 1.025 6.074 2.876 1.11 1.42-.113 7.879-3.65 13.45a19.89 19.89 0 0 0-.107-.134l-.045-.056c.914-1.512.735-3.007.576-4.332-.065-.544-.127-1.058-.111-1.54.016-.512.083-.951.149-1.375.08-.523.162-1.064.14-1.702a.708.708 0 0 0 .014-.24c-.057-.611-.755-2.441-2.177-4.098-.777-.906-1.911-1.92-3.46-2.604a11.657 11.657 0 0 1 2.597-.244zM8.074 21.307c-.715.86-1.208.695-1.37.642-1.057-.354-2.284-2.59-3.366-6.137-.935-3.069-1.482-6.155-1.526-7.02-.136-2.737.527-4.644 1.97-5.669 2.35-1.668 6.213-.67 7.766-.163l-.068.065C8.933 5.599 8.993 9.999 9 10.267c0 .104.008.251.02.453.044.74.125 2.117-.093 3.677-.202 1.45.244 2.868 1.225 3.892.1.105.206.205.317.3a65.561 65.561 0 0 0-2.395 2.718zm2.722-3.635c-.79-.825-1.15-1.974-.985-3.15.23-1.648.145-3.083.1-3.854l-.016-.277c.372-.33 2.097-1.255 3.327-.973.56.129.903.511 1.045 1.17.736 3.406.097 4.826-.416 5.966-.105.236-.205.458-.29.688l-.067.177c-.167.45-.323.867-.42 1.264-.84-.003-1.657-.362-2.278-1.011zm.129 4.594a1.973 1.973 0 0 1-.596-.256c.109-.051.301-.12.635-.19 1.615-.332 1.864-.567 2.409-1.26.125-.158.266-.338.462-.557.293-.328.426-.272.668-.171.197.08.388.327.465.598.037.128.078.371-.057.56-1.137 1.595-2.795 1.574-3.986 1.276zm8.452 7.873c-1.976.424-2.675-.585-3.136-1.739-.298-.745-.444-4.103-.34-7.812a.447.447 0 0 0-.02-.142 1.874 1.874 0 0 0-.055-.262c-.154-.54-.53-.99-.981-1.178-.18-.074-.508-.21-.903-.11.084-.347.23-.74.389-1.165l.066-.178c.075-.202.169-.41.268-.632.537-1.194 1.272-2.829.474-6.522-.299-1.384-1.297-2.06-2.81-1.903-.907.094-1.737.46-2.15.67-.09.046-.17.09-.247.132.116-1.394.552-4 2.185-5.647 1.028-1.038 2.397-1.55 4.065-1.523 3.286.054 5.394 1.742 6.583 3.15 1.025 1.211 1.58 2.433 1.801 3.091-1.665-.17-2.798.16-3.372.982-1.25 1.787.683 5.257 1.612 6.924.17.306.317.57.364.682.302.734.694 1.224.98 1.582.087.11.172.215.237.308-.505.146-1.41.482-1.328 2.164-.067.843-.54 4.793-.78 6.189-.319 1.843-.996 2.53-2.902 2.939zm8.247-9.447c-.516.24-1.38.42-2.2.458-.905.043-1.366-.101-1.474-.19-.051-1.048.338-1.157.75-1.273.065-.018.128-.036.19-.057.037.03.079.061.125.091.727.481 2.026.533 3.86.154l.02-.004c-.248.232-.671.542-1.27.821z" fill="#fff"/></svg>
